X:27
T:Scotland the Brave
C:Scotland
R:March
M:4/4
L:1/8
K:D
%
|"D"D2 D>E FDFA | d2 d>c dAFD | "G"G2 B>G "D"FAFD | "A7"E2 A>A A4 |
"D"D2 D>E FDFA | d2 d>c dAFD | "G"G2 B>G "D"FAFD | "A"E2 D>C "D"D4|
%
| "A"e2 e>e ec A2 | "D"d2 f>e dB A2 | "Bm"d2 d>d "A"c2 d>c | "G"BdcB "A"AGFE |
"D"D2 D>E FDFA | d2 d>c dAFD | "G"G2 B>G "D"FAFD | "A7"E2 D>C "D"D4|
